X: 58
T: Polska efter Johan August Ericsson
S: efter Johan August Ericsson
B: SMUS - katalog M19 bild 20 (nr 58)
O: Södermanland
R: Polska
Z: Nils L, 2011-11-18
M: 3/4
L: 1/16
K: G
g2 | gdgb gdgb gdgb | edef gfge e2d2 | edef gfge d2dB | cBcA (A2G2) G2 ::
c2 | BGBd BGBd edcB | AFAc AFAc dcBA | BGBd BGBd edcB |
     AFAc AFAc dcBA | edef gfge d2dB | cBcA (A2G2) G2 :|

